svg/zoom-in.svg

<svg width="24" height="24" viewBox="0 0 24 24" fill="none" xmlns="http://www.w3.org/2000/svg">
<path d="M10 4C6.68629 4 4 6.68629 4 10C4 13.3137 6.68629 16 10 16C13.3137 16 16 13.3137 16 10C16 6.68629 13.3137 4 10 4ZM2 10C2 5.58172 5.58172 2 10 2C14.4183 2 18 5.58172 18 10C18 11.8487 17.3729 13.551 16.3199 14.9056L21.7071 20.2929C22.0976 20.6834 22.0976 21.3166 21.7071 21.7071C21.3166 22.0976 20.6834 22.0976 20.2929 21.7071L14.9056 16.3199C13.551 17.3729 11.8487 18 10 18C5.58172 18 2 14.4183 2 10ZM10 7C10.5523 7 11 7.44772 11 8V9H12C12.5523 9 13 9.44772 13 10C13 10.5523 12.5523 11 12 11H11V12C11 12.5523 10.5523 13 10 13C9.44772 13 9 12.5523 9 12V11H8C7.44772 11 7 10.5523 7 10C7 9.44772 7.44772 9 8 9H9V8C9 7.44772 9.44772 7 10 7Z" fill="#0D0D0D"/>
</svg>

<svg width="24" height="24" fill="none" xmlns="http://www.w3.org/2000/svg"><path d="M10 4a6 6 0 100 12 6 6 0 000-12zm-8 6a8 8 0 1114.32 4.906l5.387 5.387a1 1 0 01-1.414 1.414l-5.387-5.387A8 8 0 012 10zm8-3a1 1 0 011 1v1h1a1 1 0 110 2h-1v1a1 1 0 11-2 0v-1H8a1 1 0 110-2h1V8a1 1 0 011-1z" fill="#0D0D0D"/></svg>
